src/static/logos/netuitive.svg

<?xml version="1.0" encoding="UTF-8" standalone="no"?>
<svg width="256px" height="165px" viewBox="0 0 256 165" version="1.1" xmlns="http://www.w3.org/2000/svg" xmlns:xlink="http://www.w3.org/1999/xlink" preserveAspectRatio="xMidYMid">
    <g>
        <path d="M131.432,57.982 L165.033,98.549 L193.433,49.893 C191.257,43.128 175.321,0 122.827,0 C72.016,0 48.66,45.484 54.396,81.134 C49.59,77.128 2.131,79.803 0,120.881 L92.94,120.881 L131.432,57.982 Z M212.2216,51.8738 L162.3696,137.4758 L126.3096,96.9098 L102.7236,138.0908 L1.8856,138.0908 C10.7446,166.9218 46.2016,164.7258 46.2016,164.7258 L180.1936,164.7258 C180.1936,164.7258 256.0006,166.7738 256.0006,105.7198 C256.0006,66.7068 230.5836,55.1468 212.2216,51.8738 Z" fill="#2D9EEB"></path>
    </g>
</svg>

<svg width="256" height="165" xmlns="http://www.w3.org/2000/svg" preserveAspectRatio="xMidYMid"><path d="M131.432 57.982l33.601 40.567 28.4-48.656C191.257 43.128 175.321 0 122.827 0 72.016 0 48.66 45.484 54.396 81.134 49.59 77.128 2.131 79.803 0 120.881h92.94l38.492-62.899zm80.79-6.108l-49.852 85.602-36.06-40.566-23.586 41.18H1.886c8.859 28.832 44.316 26.636 44.316 26.636h133.992S256 166.774 256 105.72c0-39.013-25.417-50.573-43.78-53.846z" fill="#2D9EEB"/></svg>
